X: 29
T: MISS BAKER'S HORNPIPE
B: "Old English Country Dances", Frank Kidson ed., William Reeves pub., London 1890
Z: 2010-9-26 John Chambers <jc:trillian.mit.edu>
M: C
L: 1/8
K: F
cB |\
A2F2 FAGF | EGB2 BdcB | Acde fcdB | A2F2 F2 :|
|: (3cde) |\
fcAc fagf | gece gbag | afge fdgf | e2c2 c2fc |
((3def) ((3ABc) B2ba | gfed c2BA | Bcde fdcB | A2F2 F2 :|


%%sep 1 1 500

%%sep 1 1 500

